img/offer/icon5.svg

<svg width="51" height="48" viewBox="0 0 51 48" fill="none" xmlns="http://www.w3.org/2000/svg">
<path fill-rule="evenodd" clip-rule="evenodd" d="M9.34098 0.186613C8.88126 0.493957 8.73703 1.01108 8.73703 2.3521V3.58181L7.58626 3.62981C6.28525 3.684 5.70136 3.89783 4.92049 4.6058C4.14317 5.31051 3.86108 5.97601 3.80289 7.24143L3.75238 8.33989H2.46411C0.625592 8.33989 0.00299627 8.65343 0.00299627 9.57918C0.00299627 10.5072 0.624529 10.8185 2.4778 10.8185H3.77988V13.1844H0.805583L0.40429 13.5674C-0.0422081 13.9936 -0.116684 14.4392 0.170005 14.9684C0.431318 15.4508 0.768287 15.547 2.30453 15.578L3.72086 15.6066V17.9725L2.36355 18.0003C0.653918 18.0352 0.518894 18.0675 0.235864 18.5107C-0.124001 19.0741 -0.0694724 19.5595 0.40429 20.0117L0.805583 20.3948H3.77988V22.7607H2.4778C0.624529 22.7607 0.00299627 23.072 0.00299627 24C0.00299627 24.928 0.624529 25.2393 2.4778 25.2393H3.77988V27.6052H0.805583L0.40429 27.9883C-0.0422081 28.4145 -0.116684 28.86 0.170005 29.3892C0.431318 29.8716 0.768287 29.9679 2.30453 29.9988L3.72086 30.0274V32.3934L2.36355 32.4211C0.653918 32.456 0.518894 32.4883 0.235864 32.9316C-0.124001 33.4949 -0.0694724 33.9803 0.40429 34.4326L0.805583 34.8156H3.77988V37.1815H2.4778C0.624529 37.1815 0.00299627 37.4928 0.00299627 38.4208C0.00299627 39.3466 0.625592 39.6601 2.46411 39.6601H3.75238L3.80266 40.7586C3.85943 42.0004 4.08344 42.5578 4.82513 43.3032C5.56339 44.0452 6.26058 44.3144 7.58626 44.37L8.73703 44.4182V45.6479C8.73703 47.4028 9.0655 47.9971 10.0353 47.9971C11.0075 47.9971 11.3336 47.4039 11.3336 45.6348V44.3919H13.8122V47.231L14.2135 47.6141C14.66 48.0403 15.1268 48.1114 15.6812 47.8377C16.1866 47.5883 16.2874 47.2666 16.3198 45.8002L16.3498 44.4483H18.8284L18.8584 45.8002C18.8908 47.2666 18.9916 47.5883 19.497 47.8377C20.0514 48.1114 20.5182 48.0403 20.9647 47.6141L21.366 47.231V44.3919H23.8446V45.6348C23.8446 47.4039 24.1707 47.9971 25.1429 47.9971C26.115 47.9971 26.4412 47.4039 26.4412 45.6348V44.3919H28.9197V47.231L29.321 47.6141C29.7675 48.0403 30.2343 48.1114 30.7887 47.8377C31.2941 47.5883 31.3949 47.2666 31.4273 45.8002L31.4573 44.4483H33.9359L33.9659 45.8002C33.9983 47.2666 34.0991 47.5883 34.6045 47.8377C35.1589 48.1114 35.6257 48.0403 36.0722 47.6141L36.4735 47.231V44.3919H38.9521V45.6348C38.9521 47.4039 39.2782 47.9971 40.2504 47.9971C41.2202 47.9971 41.5487 47.4028 41.5487 45.6479V44.4182L42.6994 44.37C44.0251 44.3144 44.7223 44.0452 45.4606 43.3032C46.2023 42.5578 46.4263 42.0004 46.4831 40.7586L46.5333 39.6601H47.8216C49.6601 39.6601 50.2827 39.3466 50.2827 38.4208C50.2827 37.4928 49.6612 37.1815 47.8079 37.1815H46.5058V34.8156H49.4801L49.8814 34.4326C50.3279 34.0064 50.4024 33.5608 50.1157 33.0316C49.8544 32.5492 49.5174 32.453 47.9812 32.422L46.5648 32.3934V30.0274L47.9812 29.9988C49.5174 29.9679 49.8544 29.8716 50.1157 29.3892C50.4024 28.86 50.3279 28.4145 49.8814 27.9883L49.4801 27.6052H46.5058V25.2393H47.8079C49.6612 25.2393 50.2827 24.928 50.2827 24C50.2827 23.072 49.6612 22.7607 47.8079 22.7607H46.5058V20.3948H49.4801L49.8814 20.0117C50.3279 19.5855 50.4024 19.14 50.1157 18.6108C49.8544 18.1284 49.5174 18.0321 47.9812 18.0012L46.5648 17.9725V15.6066L47.9812 15.578C49.5174 15.547 49.8544 15.4508 50.1157 14.9684C50.4024 14.4392 50.3279 13.9936 49.8814 13.5674L49.4801 13.1844H46.5058V10.8185H47.8079C49.6612 10.8185 50.2827 10.5072 50.2827 9.57918C50.2827 8.65343 49.6601 8.33989 47.8216 8.33989H46.5333L46.4828 7.24143C46.4246 5.97601 46.1425 5.31051 45.3652 4.6058C44.5843 3.89783 44.0005 3.684 42.6994 3.62981L41.5487 3.58181V2.3521C41.5487 0.597156 41.2202 0.00286007 40.2504 0.00286007C39.2782 0.00286007 38.9521 0.596141 38.9521 2.36517V3.60806H36.4735V0.768966L36.0722 0.385913C35.5984 -0.0663146 35.0899 -0.118365 34.4997 0.225143C34.0354 0.495308 34.0015 0.624195 33.9649 2.25611L33.9359 3.55173H31.4573L31.4273 2.19978C31.3949 0.733365 31.2941 0.411713 30.7887 0.162278C30.2343 -0.11138 29.7675 -0.0402895 29.321 0.385913L28.9197 0.768966V3.60806H26.4412V2.36517C26.4412 0.596141 26.115 0.00286007 25.1429 0.00286007C24.1707 0.00286007 23.8446 0.596141 23.8446 2.36517V3.60806H21.366V0.768966L20.9647 0.385913C20.4909 -0.0663146 19.9823 -0.118365 19.3922 0.225143C18.9279 0.495308 18.894 0.624195 18.8574 2.25611L18.8284 3.55173H16.3498L16.3198 2.19978C16.2874 0.733365 16.1866 0.411713 15.6812 0.162278C15.1268 -0.11138 14.66 -0.0402895 14.2135 0.385913L13.8122 0.768966V3.60806H11.3336V2.36517C11.3336 0.596141 11.0075 0.00286007 10.0353 0.00286007C9.80459 0.00286007 9.49205 0.0855545 9.34098 0.186613ZM43.9682 6.65502V41.345L43.3138 41.9697H6.97193L6.31747 41.345V24.0092C6.31747 6.83224 6.31959 6.67136 6.55352 6.42316C6.68335 6.28538 6.8958 6.13092 7.02563 6.07988C7.15546 6.02885 15.3734 5.99685 25.2877 6.00868L43.3138 6.03031L43.9682 6.65502ZM9.48308 8.52162C8.68947 8.89521 8.73703 7.9084 8.73703 24C8.73703 40.1344 8.68663 39.1132 9.50161 39.4824C9.85263 39.6414 11.5008 39.6601 25.1429 39.6601C38.7849 39.6601 40.4331 39.6414 40.7841 39.4824C41.5991 39.1132 41.5487 40.1344 41.5487 24C41.5487 7.86558 41.5991 8.88676 40.7841 8.51756C40.433 8.3586 38.787 8.34012 25.125 8.34249C11.5031 8.34474 9.81781 8.364 9.48308 8.52162ZM38.9521 37.1815H11.3336V10.8185H38.9521V37.1815Z" fill="url(#paint0_linear_1924_5738)"/>
<path d="M20.2045 29.6933C19.3965 29.6933 18.6768 29.5544 18.0455 29.2766C17.4177 28.9953 16.9217 28.6093 16.5574 28.1186C16.1966 27.6244 16.0108 27.0544 16 26.4087H18.3593C18.3737 26.6792 18.4621 26.9173 18.6245 27.123C18.7904 27.325 19.0105 27.4819 19.2846 27.5938C19.5588 27.7056 19.8672 27.7615 20.21 27.7615C20.5671 27.7615 20.8828 27.6984 21.1569 27.5721C21.4311 27.4458 21.6457 27.2709 21.8009 27.0472C21.956 26.8235 22.0335 26.5656 22.0335 26.2734C22.0335 25.9776 21.9506 25.716 21.7846 25.4888C21.6223 25.2579 21.3878 25.0775 21.0812 24.9476C20.7781 24.8178 20.4174 24.7528 19.9989 24.7528H18.9654V23.0321H19.9989C20.3525 23.0321 20.6645 22.9707 20.9351 22.8481C21.2092 22.7254 21.4221 22.5559 21.5736 22.3394C21.7251 22.1194 21.8009 21.8632 21.8009 21.571C21.8009 21.2932 21.7341 21.0497 21.6006 20.8405C21.4708 20.6277 21.2868 20.4617 21.0487 20.3427C20.8142 20.2236 20.54 20.1641 20.2262 20.1641C19.9087 20.1641 19.6183 20.2218 19.355 20.3373C19.0916 20.4491 18.8806 20.6096 18.7219 20.8189C18.5631 21.0281 18.4784 21.2734 18.4675 21.5548H16.2219C16.2327 20.9163 16.4149 20.3535 16.7684 19.8665C17.1219 19.3795 17.5981 18.9989 18.197 18.7247C18.7994 18.4469 19.4794 18.308 20.237 18.308C21.0018 18.308 21.671 18.4469 22.2446 18.7247C22.8182 19.0025 23.2637 19.3777 23.5812 19.8502C23.9022 20.3192 24.061 20.8459 24.0574 21.4303C24.061 22.0508 23.868 22.5685 23.4784 22.9834C23.0924 23.3982 22.5891 23.6616 21.9686 23.7734V23.86C22.7839 23.9646 23.4044 24.2478 23.8301 24.7096C24.2594 25.1677 24.4722 25.7413 24.4686 26.4303C24.4722 27.0616 24.29 27.6226 23.9221 28.1132C23.5577 28.6039 23.0545 28.9899 22.4123 29.2712C21.7702 29.5526 21.0343 29.6933 20.2045 29.6933Z" fill="url(#paint1_linear_1924_5738)"/>
<path d="M26.1529 29.5418V27.8535L30.0977 24.2009C30.4332 23.8762 30.7146 23.584 30.9418 23.3243C31.1727 23.0645 31.3477 22.8102 31.4667 22.5613C31.5858 22.3088 31.6453 22.0364 31.6453 21.7442C31.6453 21.4195 31.5713 21.1399 31.4234 20.9054C31.2755 20.6673 31.0735 20.4852 30.8174 20.3589C30.5612 20.229 30.2708 20.1641 29.9462 20.1641C29.6071 20.1641 29.3112 20.2326 29.0587 20.3697C28.8062 20.5068 28.6114 20.7034 28.4743 20.9596C28.3372 21.2157 28.2687 21.5205 28.2687 21.8741H26.0446C26.0446 21.1489 26.2088 20.5194 26.5371 19.9855C26.8654 19.4516 27.3253 19.0386 27.9169 18.7463C28.5086 18.4541 29.1904 18.308 29.9624 18.308C30.756 18.308 31.4469 18.4487 32.0349 18.7301C32.6265 19.0079 33.0865 19.3939 33.4148 19.8881C33.7431 20.3824 33.9072 20.9487 33.9072 21.5873C33.9072 22.0057 33.8242 22.4188 33.6583 22.8264C33.4959 23.2341 33.2055 23.6868 32.7871 24.1847C32.3686 24.6789 31.7788 25.2723 31.0176 25.965L29.3996 27.5505V27.6262H34.0533V29.5418H26.1529Z" fill="url(#paint2_linear_1924_5738)"/>
<defs>
<linearGradient id="paint0_linear_1924_5738" x1="0" y1="0" x2="48.896" y2="51.4754" gradientUnits="userSpaceOnUse">
<stop stop-color="#0ABD92"/>
<stop offset="1" stop-color="#009DB8"/>
</linearGradient>
<linearGradient id="paint1_linear_1924_5738" x1="0" y1="0" x2="48.896" y2="51.4754" gradientUnits="userSpaceOnUse">
<stop stop-color="#0ABD92"/>
<stop offset="1" stop-color="#009DB8"/>
</linearGradient>
<linearGradient id="paint2_linear_1924_5738" x1="0" y1="0" x2="48.896" y2="51.4754" gradientUnits="userSpaceOnUse">
<stop stop-color="#0ABD92"/>
<stop offset="1" stop-color="#009DB8"/>
</linearGradient>
</defs>
</svg>

<svg width="51" height="48" fill="none" xmlns="http://www.w3.org/2000/svg"><path fill-rule="evenodd" clip-rule="evenodd" d="M9.341.187c-.46.307-.604.824-.604 2.165v1.23l-1.15.048c-1.302.054-1.886.268-2.667.976-.777.705-1.059 1.37-1.117 2.635l-.05 1.099h-1.29c-1.837 0-2.46.313-2.46 1.24s.622 1.239 2.475 1.239H3.78v2.365H.806l-.402.383c-.446.427-.52.872-.234 1.401.261.483.598.579 2.135.61l1.416.029v2.366L2.364 18c-1.71.035-1.845.067-2.128.51-.36.564-.305 1.05.168 1.502l.402.383H3.78v2.366H2.478C.625 22.76.003 23.072.003 24c0 .928.622 1.24 2.475 1.24H3.78v2.365H.806l-.402.383c-.446.427-.52.872-.234 1.401.261.483.598.579 2.135.61l1.416.028v2.366l-1.357.028c-1.71.035-1.845.067-2.128.51-.36.564-.305 1.05.168 1.502l.402.383H3.78v2.365H2.478c-1.853 0-2.475.312-2.475 1.24 0 .926.623 1.24 2.461 1.24h1.288l.05 1.098c.057 1.241.281 1.799 1.023 2.544.738.742 1.436 1.011 2.761 1.067l1.151.048v1.23c0 1.755.329 2.35 1.298 2.35.973 0 1.299-.594 1.299-2.363v-1.243h2.478v2.839l.402.383c.446.426.913.497 1.467.224.506-.25.606-.571.639-2.038l.03-1.352h2.478l.03 1.352c.033 1.467.134 1.788.639 2.038.554.273 1.021.202 1.468-.224l.401-.383v-2.84h2.479v1.244c0 1.769.326 2.362 1.298 2.362s1.298-.593 1.298-2.362v-1.243h2.479v2.839l.401.383c.446.426.913.497 1.468.224.505-.25.606-.571.638-2.038l.03-1.352h2.479l.03 1.352c.032 1.467.133 1.788.639 2.038.554.273 1.02.202 1.467-.224l.401-.383v-2.84h2.48v1.244c0 1.769.325 2.362 1.297 2.362.97 0 1.299-.594 1.299-2.35v-1.229l1.15-.048c1.326-.056 2.023-.325 2.762-1.067.741-.745.965-1.303 1.022-2.544l.05-1.099h1.289c1.838 0 2.46-.313 2.46-1.24s-.62-1.239-2.474-1.239h-1.302v-2.365h2.974l.401-.383c.447-.427.521-.872.235-1.401-.262-.483-.599-.579-2.135-.61l-1.416-.029v-2.366L47.98 30c1.536-.031 1.873-.127 2.135-.61.286-.529.212-.974-.235-1.4l-.4-.384h-2.975V25.24h1.302c1.853 0 2.475-.311 2.475-1.239 0-.928-.622-1.24-2.475-1.24h-1.302v-2.365h2.974l.401-.383c.447-.427.521-.872.235-1.401-.262-.483-.599-.579-2.135-.61l-1.416-.029v-2.365l1.416-.029c1.536-.031 1.873-.127 2.135-.61.286-.529.212-.974-.235-1.4l-.4-.384h-2.975V10.82h1.302c1.853 0 2.475-.312 2.475-1.24 0-.926-.623-1.24-2.461-1.24h-1.289l-.05-1.098c-.058-1.265-.34-1.93-1.118-2.635-.78-.708-1.364-.922-2.666-.976l-1.15-.048v-1.23c0-1.755-.329-2.35-1.299-2.35-.972 0-1.298.594-1.298 2.363v1.243h-2.478V.77l-.402-.383c-.474-.452-.982-.504-1.572-.16-.465.27-.498.398-.535 2.03l-.03 1.296h-2.478l-.03-1.352C31.395.733 31.294.412 30.79.162c-.555-.273-1.022-.202-1.468.224l-.401.383v2.84H26.44V2.364c0-1.769-.326-2.362-1.298-2.362s-1.298.593-1.298 2.362v1.243h-2.479V.77l-.401-.383c-.474-.452-.983-.504-1.573-.16-.464.27-.498.398-.535 2.03l-.029 1.296H16.35L16.32 2.2C16.287.733 16.187.412 15.68.162c-.554-.273-1.021-.202-1.467.224l-.402.383v2.84h-2.478V2.364c0-1.769-.326-2.362-1.299-2.362-.23 0-.543.083-.694.184zm34.627 6.468v34.69l-.654.625H6.972l-.655-.625V24.009c0-17.177.003-17.338.237-17.586.13-.138.342-.292.472-.343.13-.051 8.347-.083 18.262-.071l18.026.021.654.625zM9.483 8.522c-.794.373-.746-.614-.746 15.478 0 16.134-.05 15.113.765 15.482.35.16 1.999.178 15.64.178 13.643 0 15.291-.019 15.642-.178.815-.369.765.652.765-15.482s.05-15.113-.765-15.482c-.351-.16-1.997-.178-15.659-.176-13.622.003-15.307.022-15.642.18zm29.47 28.66h-27.62V10.817h27.62v26.364z" fill="url(#paint0_linear_1924_5738)"/><path d="M20.204 29.693c-.808 0-1.527-.139-2.159-.416-.627-.282-1.123-.668-1.488-1.158a2.91 2.91 0 01-.557-1.71h2.36c.014.27.102.508.265.714.165.202.386.359.66.47.274.113.582.169.925.169.357 0 .673-.064.947-.19a1.55 1.55 0 00.644-.525c.155-.224.233-.481.233-.774a1.29 1.29 0 00-.25-.784 1.591 1.591 0 00-.703-.541c-.303-.13-.664-.195-1.082-.195h-1.034v-1.72H20c.354 0 .666-.062.936-.185a1.51 1.51 0 00.639-.509c.151-.22.227-.476.227-.768a1.328 1.328 0 00-.752-1.228 1.794 1.794 0 00-.823-.179c-.317 0-.608.058-.871.173a1.522 1.522 0 00-.633.482c-.159.21-.244.454-.255.736h-2.245c.01-.639.193-1.201.546-1.689.354-.486.83-.867 1.429-1.141.602-.278 1.282-.417 2.04-.417.765 0 1.434.139 2.008.417.573.277 1.019.653 1.336 1.125.321.47.48.996.476 1.58.004.62-.189 1.139-.579 1.553-.386.415-.889.679-1.51.79v.087c.816.105 1.436.388 1.862.85.43.458.642 1.031.639 1.72a2.704 2.704 0 01-.547 1.683c-.364.49-.867.877-1.51 1.158-.642.282-1.378.422-2.207.422z" fill="url(#paint1_linear_1924_5738)"/><path d="M26.153 29.542v-1.689l3.945-3.652c.335-.325.617-.617.844-.877.23-.26.406-.514.525-.763a1.89 1.89 0 00.178-.817 1.54 1.54 0 00-.222-.839 1.457 1.457 0 00-.606-.546 1.9 1.9 0 00-.87-.195c-.34 0-.636.069-.888.206a1.417 1.417 0 00-.585.59 1.91 1.91 0 00-.205.914h-2.224c0-.725.164-1.355.492-1.889a3.29 3.29 0 011.38-1.239c.592-.292 1.273-.438 2.045-.438.794 0 1.485.14 2.073.422.592.278 1.052.664 1.38 1.158.328.494.492 1.06.492 1.7 0 .418-.083.83-.249 1.238-.162.408-.453.86-.87 1.359-.42.494-1.01 1.087-1.77 1.78L29.4 27.55v.076h4.653v1.916h-7.9z" fill="url(#paint2_linear_1924_5738)"/><defs><linearGradient id="paint0_linear_1924_5738" x1="0" y1="0" x2="48.896" y2="51.475" gradientUnits="userSpaceOnUse"><stop stop-color="#0ABD92"/><stop offset="1" stop-color="#009DB8"/></linearGradient><linearGradient id="paint1_linear_1924_5738" x1="0" y1="0" x2="48.896" y2="51.475" gradientUnits="userSpaceOnUse"><stop stop-color="#0ABD92"/><stop offset="1" stop-color="#009DB8"/></linearGradient><linearGradient id="paint2_linear_1924_5738" x1="0" y1="0" x2="48.896" y2="51.475" gradientUnits="userSpaceOnUse"><stop stop-color="#0ABD92"/><stop offset="1" stop-color="#009DB8"/></linearGradient></defs></svg>
